X:1
T:Black Rogue (Jig), The
M:6/8
L:1/8
O:Trad. (15.10.2014/NS)
R:jig
K:D
|: "A"cAA "G"BGG | "A"cAA ABd | "A"cAA "G"BAG | "D"AFD D2 B|
"A"cAA "G"BGG | "A"cAA AFD | "G"~G2G ~B2B | "D"AFD D2 B :|
|: "D"~f3 "Em"~g3 | "D/F#"afd "G"cBA| "D/F#"~f3 "G"gfg | "D"afd dfg |
"D"agf "G"gfe | "D/F#"fed e/f/ed | "A"cBA "G"BAG | "D"AFD D3 :|

